assets/img/icons/portfolio.svg

<svg class="menu_mobile-only menu__list__item__icon menu__list__item__icon_portfolio" viewBox="0 0 104 63" xmlns="http://www.w3.org/2000/svg">
    <path d="M66.095842,39.036692 L66.095842,59.700769 C66.095842,61.398906 64.647935,62.769691 62.85426,62.769691 L41.0276134,62.769691 C39.2339384,62.769691 37.7860321,61.398906 37.7860321,59.700769 L37.7860321,39.036692 C37.7860321,37.338555 39.2339384,35.9677696 41.0276134,35.9677696 L62.85426,35.9677696 C64.647935,35.9677696 66.095842,37.338555 66.095842,39.036692 Z M103.881874,39.036692 L103.892679,39.036692 L103.892679,59.700769 C103.892679,61.398906 102.444881,62.769691 100.651098,62.769691 L78.813646,62.769691 C77.019862,62.769691 75.572064,61.398906 75.572064,59.700769 L75.572064,39.036692 C75.572064,37.338555 77.019862,35.9677696 78.813646,35.9677696 L100.640293,35.9677696 C102.433968,35.9677696 103.881874,37.338555 103.881874,39.036692 Z M28.3098096,3.0689223 L28.3206149,3.0689223 L28.3206149,23.743229 C28.3206149,25.441366 26.8727086,26.8121513 25.0790336,26.8121513 L3.2415813,26.8121513 C1.4479063,26.8121513 0,25.441366 0,23.743229 L0,3.0689223 C0,1.3707853 1.4479063,0 3.2415813,0 L25.0682283,0 C26.8619033,0 28.3098096,1.3707853 28.3098096,3.0689223 Z M66.095842,3.0689223 L66.095842,23.743229 C66.095842,25.441366 64.647935,26.8121513 62.85426,26.8121513 L41.0276134,26.8121513 C39.2339384,26.8121513 37.7860321,25.441366 37.7860321,23.743229 L37.7860321,3.0689223 C37.7860321,1.3707853 39.2339384,0 41.0276134,0 L62.85426,0 C64.647935,0 66.095842,1.3707853 66.095842,3.0689223 Z M103.881874,3.0689223 L103.892679,3.0689223 L103.892679,23.743229 C103.892679,25.441366 102.444881,26.8121513 100.651098,26.8121513 L78.813646,26.8121513 C77.019862,26.8121513 75.572064,25.441366 75.572064,23.743229 L75.572064,3.0689223 C75.572064,1.3707853 77.019862,0 78.813646,0 L100.640293,0 C102.433968,0 103.881874,1.3707853 103.881874,3.0689223 Z M28.3098096,39.036692 L28.3206149,39.036692 L28.3206149,59.700769 C28.3206149,61.398906 26.8727086,62.769691 25.0790336,62.769691 L3.2415813,62.769691 C1.4479063,62.769691 0,61.398906 0,59.700769 L0,39.036692 C0,37.338555 1.4479063,35.9677696 3.2415813,35.9677696 L25.0682283,35.9677696 C26.8619033,35.9677696 28.3098096,37.338555 28.3098096,39.036692 Z"></path>
</svg>

<svg class="menu_mobile-only menu__list__item__icon menu__list__item__icon_portfolio" viewBox="0 0 104 63" xmlns="http://www.w3.org/2000/svg"><path d="M66.096 39.037V59.7c0 1.698-1.448 3.069-3.242 3.069H41.028c-1.794 0-3.242-1.371-3.242-3.07V39.038c0-1.698 1.448-3.07 3.242-3.07h21.826c1.794 0 3.242 1.372 3.242 3.07zm37.786 0h.01V59.7c0 1.698-1.447 3.069-3.24 3.069H78.813c-1.794 0-3.242-1.371-3.242-3.07V39.038c0-1.698 1.448-3.07 3.242-3.07h21.826c1.794 0 3.242 1.372 3.242 3.07zM28.31 3.069h.01v20.674c0 1.698-1.447 3.07-3.241 3.07H3.242C1.448 26.812 0 25.44 0 23.742V3.07C0 1.37 1.448 0 3.242 0h21.826c1.794 0 3.242 1.37 3.242 3.069zm37.786 0v20.674c0 1.698-1.448 3.07-3.242 3.07H41.028c-1.794 0-3.242-1.372-3.242-3.07V3.07c0-1.7 1.448-3.07 3.242-3.07h21.826c1.794 0 3.242 1.37 3.242 3.069zm37.786 0h.01v20.674c0 1.698-1.447 3.07-3.24 3.07H78.813c-1.794 0-3.242-1.372-3.242-3.07V3.07C75.572 1.37 77.02 0 78.814 0h21.826c1.794 0 3.242 1.37 3.242 3.069zM28.31 39.037h.01V59.7c0 1.698-1.447 3.069-3.241 3.069H3.242C1.448 62.77 0 61.399 0 59.7V39.038c0-1.698 1.448-3.07 3.242-3.07h21.826c1.794 0 3.242 1.372 3.242 3.07z"/></svg>
